X:1
T:Accusat triplici
T:Daniel Friderici
T:Source : Bicinia sacra---Rostock---J.Richelius---1642. Editor : André Vierendeels (07/07/17).
T:Notes : Original clefs : C1, C1 Editorial accidentals above the staff
T:Accusat triplici
T:©
T:©
T:©
C:Daniel Friderici
Z:©
%%score [ 1 2 ]
L:1/8
Q:1/4=120
M:2/2
K:C
V:1 treble nm="Soprano 1" snm="S 1"
V:2 treble nm="Soprano 2" snm="S 2"
V:1
 c8 | B4 c4 | A6 A2 | G4 A4 | F8 | E4 F4- | F2 E2 D4 | C4 D4 | D2 E2 F2 D2 | E2 F2 G2 E2 | %10
w: Ac-|cu- sat|tri- pli-|ci de|cau-|sa Spi-|* ri- tus|Or- bem,|Or- * * *||
 F2 G2 A2 F2 | G2 A2 B2 G2 | A2 B2 c2 A2 | B2 c2 d2 B2 | c2 d2 e2 c2 | d2 e2 f2 d2 | e2 d2 c2 A2 | %17
w: |||||||
 B2 G2 c4- | c2 BA B4 |[M:2/4] c4 ::[M:2/2] z2 e2 d3 c | B2 A2 G4 | z2 C2 G3 A | BABc d2 e2 | %24
w: ||bem:|Sed ve- ni-|am Cul- pae,|qui re- si-|pi- * * * * scit,|
 z2 c2 B2 e2 | d2 c2 z2 e2 | d3 d c2 B2 | A4 G2 d2 | c3 c B2 B2 | A4 G2 G2 | A3 G F3 E | D4 C4 | %32
w: qui re- si-|pi- scit, qui|re- si- pi- scit|ha- bet, qui|re- si- pi- scit|ha- bet, qui|re- si- pi- scit|ha- bet,|
 z2 G2 A3 G | F2 E2 D2 C2- | C2 B,2 !fermata!C4 :| %35
w: qui re- si-|pi- scit ha- *|* * bet.|
V:2
 z8 | z8 | c8 | B4 c4 | A6 A2 | G4 A4 | F8 | E4 F4- | F2 E2 D4 | C4 D4 | D2 E2 F2 D2 | %11
w: ||Ac-|cu- sat|tri- pli-|ci de|cau-|sa Spi-|* ri- tus|Or- bem,|Or- * * *|
 E2 F2 G2 E2 | F2 G2 A2 F2 | G2 A2 B2 G2 | A2 B2 c2 A2 | B2 c2 d2 B2 | c2 d2 e2 c2 | d4 e4 | d8 | %19
w: ||||||||
[M:2/4] c4 ::[M:2/2] z2 c2 B3 A | G2 F2 E2 C2 | G3 A BABc | d2 e2 z2 c2 | B2 e2 d2 c2 | %25
w: bem:|Sed ve- ni-|am Cul- pae, qui|re- si- pi- * * *|* scit, qui|re- si- pi- scit,|
 z2 e2 d2 c2 | B2 G2 z2 d2 | c3 c B2 B2 | A4 G2 d2 | c3 A B2 B2 | c3 B AGAG | F4 E2 G2 | %32
w: qui re- si-|pi- scit, qui|re- si- pi- scit|ha- bet, qui|re- si- pi- scit|ha- * * * * *|* bet, qui|
 A3 G F2 E2 | D2 z C D2 E2 | D4 !fermata!C4 :| %35
w: re- si- pi- scit|ha- * * *|* bet.|

